X:1
T:Title
%%score { ( 1 3 ) | ( 2 4 ) }
L:1/8
M:4/4
K:Ab
V:1 treble nm="Grand Piano"
V:3 treble 
V:2 bass 
V:4 bass 
V:1
 z4 z2[Q:1/4=94] [CE][DF] | [CA][DG][CA]B c2 dc | c2 B2 [CA]2 [CE][C=E] | %3
 [DF]2 [=DA]2 [_DB]3 [DG] |[M:3/4] [CA]6 |[M:1/4] [CE][DF] |[M:4/4] [CA][DG][CA]B c2 dc | %7
 c2 B2 A2 GA | [=DB]2 [Dc]2 [DG]2 [DF]2 |[M:3/4] [DB]6 |[M:1/4] [Ec]2 | %11
[M:4/4] [CE][DF][CE][DF] [CA]2 AB | c_c =c4 cB | A6[K:bass][K:treble] z2 |[M:3/4] E6 | %15
[M:1/4] [A,CA]2 |[M:4/4] G G2 A B2 =A2 | B6 z2 | [CA] [CA]2 [DB] [Ec]2 [=D_c]2 | c6 z2 | %20
 [CE][DF][CE][DF] [CA]2 AB | c_c =c4 cB | A6[K:bass][K:treble] z2 |[M:3/4] E6 |[M:1/4] [A,CE]2 | %25
[M:4/4] [A,DF] [DFA]2 [A,DF] [DFA]2 [DFA][=EB] | [Ec]2 [CA]2 [Ec]2 [Ec]2 | B B2 c d c2 B | %28
[M:3/4] [CA]6 |] %29
V:2
 z4 z2 [A,,A,][A,,A,] | [A,,E,][B,,E,][A,,E,][E,G,D][K:treble] [A,E]2 [A,F][K:bass][A,E] | %2
 [E,G,E]2 [E,G,D]2 [A,,A,]2 [A,,A,][A,,A,] | [D,A,]2 [B,,B,]2 [E,G,]3 [E,B,] |[M:3/4] [A,,A,]6 | %5
[M:1/4] [A,,A,][A,,A,] |[M:4/4] [A,,E,][B,,E,][A,,E,][E,G,D][K:treble] [A,E]2 [A,F][A,F] | %7
 [E,G,E]2 [E,G,D]2 [F,A,C]2 [F,A,C][F,A,C] | [B,,A,]2 [B,,F,]2 [B,,B,]2 [B,,A,]2 |[M:3/4] [E,G,]6 | %10
[M:1/4] [E,G,]2 |[M:4/4] [A,,E,][A,,F,][A,,E,][A,,F,] [A,,A,]2[K:treble] [A,C][A,D] | %12
 [A,E][A,=D] [A,E]4 E_D | C6[K:bass][K:treble] z2 |[M:3/4] C6[K:bass] |[M:1/4] A,,2 | %16
[M:4/4] [E,B,] [E,B,D]2 [E,A,D] [E,G,D]2 [E,_G,C]2 | [G,D]2 z2 z4 | %18
 [A,,A,] [A,,A,]2 [A,,A,] [A,,A,]2 [A,,A,]2 | A,2 z2 z4 | %20
 [A,,E,][A,,F,][A,,E,][A,,F,] [A,,A,]2[K:treble] [A,C][A,D] | [A,E][A,=D] [A,E]4 E_D | %22
 C6[K:bass][K:treble] z2 |[M:3/4] C6[K:bass] |[M:1/4] A,,2 |[M:4/4] D, D,2 D, D,2 z A, | %26
 [A,,A,]2 [A,,A,]2 [A,,A,]2 [A,,A,]2 | [E,G,D] [E,G,D]2 [E,A,E] [E,G,F] [E,G,E]2 [E,G,D] | %28
[M:3/4] [A,,A,]6 |] %29
V:3
 x8 | x8 | x8 | x8 |[M:3/4] x6 |[M:1/4] x2 |[M:4/4] x8 | x8 | x8 |[M:3/4] x6 |[M:1/4] x2 | %11
[M:4/4] x8 | x8 | z2[K:bass] E,E, E,2[K:treble] FA |[M:3/4] z2 A,A, A,2 |[M:1/4] x2 |[M:4/4] x8 | %17
 z2 GF E2 EE | x8 | E2 AF E2 [Ec]2 | x8 | x8 | z2[K:bass] E,E, E,2[K:treble] FA | %23
[M:3/4] z2 A,A, A,2 |[M:1/4] x2 |[M:4/4] x8 | x8 | x8 |[M:3/4] x6 |] %29
V:4
 x8 | x4[K:treble] x3[K:bass] x | x8 | x8 |[M:3/4] x6 |[M:1/4] x2 |[M:4/4] x4[K:treble] x4 | x8 | %8
 x8 |[M:3/4] x6 |[M:1/4] x2 |[M:4/4] x6[K:treble] x2 | x8 | z2[K:bass] A,,A,, A,,2[K:treble] DF | %14
[M:3/4] z2[K:bass] A,,A,, A,,2 |[M:1/4] x2 |[M:4/4] x8 | %17
 E,2- [E,-B,][E,-A,] [E,G,]2 [E,G,D][E,G,D] | x8 | A,,2- [A,,-C][A,,-C] [A,,C]2 [A,,A,]2 | %20
 x6[K:treble] x2 | x8 | z2[K:bass] A,,A,, A,,2[K:treble] DF |[M:3/4] z2[K:bass] A,,A,, A,,2 | %24
[M:1/4] x2 |[M:4/4] z4 z2 D,2 | x8 | x8 |[M:3/4] x6 |] %29

